X:1
T:Shenandoah
M:3/4
L:1/8
K:D
 A,2| D3/2 D/2 D3 E| FG
M:3/4
| A F3 d2| B3 AB A| F A3 A2| BB A3 F| AF
M:3/4
| E D3 E2| F3 D F3/2 G/2| A6| D3/2 E/2 F3 D| E D3||

